X: 31114
T: Paddy Fahey's
R: reel
M: 4/4
K: Edorian
E2BE GFGA|Beed e3f|gfeg f2dB|edBA GEDE|
EEDE GFGA|Beed e2ef|g2ag fedB|edBA GEE2:|
e2fe befe|d2Ad FdAd|e2fe befe|dcde fedB|
b2^ab BcdB|edBA GEDF|E2EF GFGA|1 Beed e2ef:|2 BeGE FEDF||

